packages/foundations/assets/icons/functional/images/audio & video/subtitles_24_filled.svg

<svg xmlns="http://www.w3.org/2000/svg" width="20" height="20" fill="none"><path fill="#1A1C1F" fill-rule="evenodd" d="M3.572 4.051c-.358.078-.69.265-.972.548a1.84 1.84 0 0 0-.534.921C2.002 5.77 2 5.904 2 10c0 4.112.002 4.23.067 4.483q.133.522.53.92.398.397.92.53c.256.066.372.067 6.483.067 6.04 0 6.23-.002 6.474-.064.39-.1.642-.244.93-.532a1.83 1.83 0 0 0 .532-.93c.062-.242.064-.41.064-4.474s-.002-4.232-.064-4.474c-.1-.39-.244-.642-.532-.929a1.9 1.9 0 0 0-.987-.547c-.338-.071-12.518-.07-12.845.001M12 13v1H4v-2h8zm3.967 0v1H14v-2h1.967z"/></svg>

<svg width="20" height="20" viewBox="0 0 20 20" fill="none" xmlns="http://www.w3.org/2000/svg"><path d="M3.572 4.051 C 3.214 4.129,2.882 4.316,2.600 4.599 C 2.311 4.888,2.161 5.147,2.066 5.520 C 2.002 5.770,2.000 5.904,2.000 10.000 C 2.000 14.112,2.002 14.230,2.067 14.483 C 2.156 14.832,2.332 15.137,2.597 15.403 C 2.863 15.668,3.168 15.844,3.517 15.933 C 3.773 15.999,3.889 16.000,10.000 16.000 C 16.040 16.000,16.230 15.998,16.474 15.936 C 16.864 15.836,17.116 15.692,17.404 15.404 C 17.692 15.116,17.836 14.864,17.936 14.474 C 17.998 14.232,18.000 14.064,18.000 10.000 C 18.000 5.936,17.998 5.768,17.936 5.526 C 17.836 5.136,17.692 4.884,17.404 4.597 C 17.112 4.306,16.793 4.129,16.417 4.050 C 16.079 3.979,3.899 3.980,3.572 4.051 M12.000 13.000 L 12.000 14.000 8.000 14.000 L 4.000 14.000 4.000 13.000 L 4.000 12.000 8.000 12.000 L 12.000 12.000 12.000 13.000 M15.967 13.000 L 15.967 14.000 14.983 14.000 L 14.000 14.000 14.000 13.000 L 14.000 12.000 14.983 12.000 L 15.967 12.000 15.967 13.000 " fill="#1A1C1F" stroke="none" fill-rule="evenodd"></path></svg>
